src/assets/images/icons/tiktok.svg

<svg xmlns="http://www.w3.org/2000/svg" viewBox="0 0 512 512"><rect width="510.72" height="513.497" x=".417" y="-1.073" rx="55.43"/><path fill="#80c7cf" d="M370.144 187.163v-12.582s-28.123-1.78-48.703-24.166c13.356 24.528 35.682 33.56 48.703 36.748m-219.256 91.284c18.955-37.881 52.581-44.845 69.381-45.805v-14.337s-53.696-6.229-79.702 45.741c0 0-27.095 52.182 10.408 94.673-21.571-39.041-.087-80.272-.087-80.272m79.008 83.572c42.124-7.224 41.962-42.353 41.962-42.353V122.075h33.453a96 96 0 0 1-3.581-14.436h-40.129v197.627s1.115 38.904-41.964 42.353c0 0-18.757 1.483-32.733-10.849 11.882 27.728 42.992 25.249 42.992 25.249"/><path fill="#e03855" d="M311.989 122.075h-6.654a76 76 0 0 0 16.106 28.34 87.9 87.9 0 0 1-9.452-28.34M172.087 300.11c.619 18.435 6.974 29.672 14.867 36.609a60.7 60.7 0 0 1-4.548-22.159s1.017-40.934 48.22-39.552v-42.353a70 70 0 0 0-10.258-.063v27.917c-47.254-1.321-48.281 39.601-48.281 39.601"/><path fill="#e03855" d="M370.144 187.163v33.508c-45.494 4.808-68.414-33.022-68.414-33.022v116.608c-2.738 40.249-23.255 57.438-23.255 57.438-54.959 51.074-108.78 13.417-108.78 13.417a101.4 101.4 0 0 1-18.671-16.393c5.934 10.75 15.128 21.325 28.93 30.83 0 0 53.361 39.551 108.779-13.403 0 0 21.484-18.125 23.256-57.439V202.111s22.92 37.832 68.414 33.011v-46.091a66 66 0 0 1-10.259-1.868"/><path fill="#fff" d="M169.695 375.086s54.675 37.932 108.78-13.415c0 0 22.054-16.742 23.255-57.438V187.649s22.92 37.83 68.414 33.022v-33.508c-13.021-3.239-35.347-12.27-48.703-36.798a76 76 0 0 1-16.106-28.338h-33.451v197.689s.111 35.079-41.964 42.354c0 0-31.085 2.491-42.992-25.3-7.841-6.939-14.198-18.175-14.867-36.611 0 0 1.029-40.921 48.232-39.551v-27.966c-16.849.997-50.474 7.924-69.38 45.805 0 0-21.435 41.231.136 80.247a101.3 101.3 0 0 0 18.646 16.392"/></svg>

<?xml version="1.0" encoding="utf-8"?>
<svg viewBox="0 0 512 512" xmlns="http://www.w3.org/2000/svg">
  <rect height="513.497" rx="55.43" width="510.72" x="0.417" y="-1.073" style=""/>
  <path d="M 370.144 187.163 L 370.144 174.581 C 370.144 174.581 342.021 172.801 321.441 150.415 C 334.797 174.943 357.123 183.975 370.144 187.163 Z" fill="#80c7cf" style=""/>
  <path d="M 150.888 278.447 C 169.843 240.566 203.469 233.602 220.269 232.642 L 220.269 218.305 C 220.269 218.305 166.573 212.076 140.567 264.046 C 140.567 264.046 113.472 316.228 150.975 358.719 C 129.404 319.678 150.888 278.447 150.888 278.447 Z" fill="#80c7cf" style=""/>
  <path d="M 229.896 362.019 C 272.02 354.795 271.858 319.666 271.858 319.666 L 271.858 122.075 L 305.311 122.075 C 303.747 117.364 302.549 112.537 301.73 107.639 L 261.601 107.639 L 261.601 305.266 C 261.601 305.266 262.716 344.17 219.637 347.619 C 219.637 347.619 200.88 349.102 186.904 336.77 C 198.786 364.498 229.896 362.019 229.896 362.019 Z" fill="#80c7cf" style=""/>
  <path d="M 311.989 122.075 L 305.335 122.075 C 308.597 132.584 314.093 142.255 321.441 150.415 C 316.699 141.583 313.501 131.997 311.989 122.075 Z" fill="#e03855" style=""/>
  <path d="M 172.087 300.11 C 172.706 318.545 179.061 329.782 186.954 336.719 C 184.064 329.686 182.52 322.168 182.406 314.56 C 182.406 314.56 183.423 273.626 230.626 275.008 L 230.626 232.655 C 227.214 232.383 223.785 232.362 220.368 232.592 L 220.368 260.509 C 173.114 259.188 172.087 300.11 172.087 300.11 Z" fill="#e03855" style=""/>
  <path d="M 370.144 187.163 L 370.144 220.671 C 324.65 225.479 301.73 187.649 301.73 187.649 L 301.73 304.257 C 298.992 344.506 278.475 361.695 278.475 361.695 C 223.516 412.769 169.695 375.112 169.695 375.112 C 162.827 370.437 156.556 364.932 151.024 358.719 C 156.958 369.469 166.152 380.044 179.954 389.549 C 179.954 389.549 233.315 429.1 288.733 376.146 C 288.733 376.146 310.217 358.021 311.989 318.707 L 311.989 202.111 C 311.989 202.111 334.909 239.943 380.403 235.122 L 380.403 189.031 C 376.941 188.681 373.51 188.055 370.144 187.163 Z" fill="#e03855" style=""/>
  <path d="M 169.695 375.086 C 169.695 375.086 224.37 413.018 278.475 361.671 C 278.475 361.671 300.529 344.929 301.73 304.233 L 301.73 187.649 C 301.73 187.649 324.65 225.479 370.144 220.671 L 370.144 187.163 C 357.123 183.924 334.797 174.893 321.441 150.365 C 314.093 142.205 308.597 132.535 305.335 122.027 L 271.884 122.027 L 271.884 319.716 C 271.884 319.716 271.995 354.795 229.92 362.07 C 229.92 362.07 198.835 364.561 186.928 336.77 C 179.087 329.831 172.73 318.595 172.061 300.159 C 172.061 300.159 173.09 259.238 220.293 260.608 L 220.293 232.642 C 203.444 233.639 169.819 240.566 150.913 278.447 C 150.913 278.447 129.478 319.678 151.049 358.694 C 156.573 364.905 162.836 370.411 169.695 375.086 Z" fill="#fff" style=""/>
</svg>
